www/assets/images/test_icons/flags/NA.svg

<svg fill="none" height="15" viewBox="0 0 21 15" width="21" xmlns="http://www.w3.org/2000/svg" xmlns:xlink="http://www.w3.org/1999/xlink"><mask id="a" height="15" maskUnits="userSpaceOnUse" width="21" x="0" y="0"><path d="m19 0h-17c-1.10457 0-2 .89543-2 2v11c0 1.1046.89543 2 2 2h17c1.1046 0 2-.8954 2-2v-11c0-1.10457-.8954-2-2-2z" fill="#fff"/></mask><g mask="url(#a)"><path d="m19 0h-17c-1.10457 0-2 .89543-2 2v11c0 1.1046.89543 2 2 2h17c1.1046 0 2-.8954 2-2v-11c0-1.10457-.8954-2-2-2z" fill="#003282"/><g clip-rule="evenodd" fill-rule="evenodd"><path d="m0 15h21v-13l-21 11z" fill="#00963f"/><path d="m4.498 5.23-1.47.773.28-1.637-1.188-1.16 1.643-.237.735-1.49.734 1.49 1.643.237-1.19 1.16.282 1.636" fill="#ffe000"/><path d="m0 14 21-11v-4l-21 11z" fill="#fff"/><path d="m0 16 21-11v-4l-21 11z" fill="#fff"/><path d="m0 15 21-11v-4l-21 11z" fill="#d4062e"/></g><path d="m19 .5h-17c-.82843 0-1.5.67157-1.5 1.5v11c0 .8284.67157 1.5 1.5 1.5h17c.8284 0 1.5-.6716 1.5-1.5v-11c0-.82843-.6716-1.5-1.5-1.5z" stroke="#000" stroke-opacity=".1"/></g></svg>

<svg width="21" height="15" viewBox="0 0 21 15" fill="none" xmlns="http://www.w3.org/2000/svg">
<mask id="mask0_3_84" style="mask-type:alpha" maskUnits="userSpaceOnUse" x="0" y="0" width="21" height="15">
<path d="M19 0H2C0.89543 0 0 0.89543 0 2V13C0 14.1046 0.89543 15 2 15H19C20.1046 15 21 14.1046 21 13V2C21 0.89543 20.1046 0 19 0Z" fill="white"/>
</mask>
<g mask="url(#mask0_3_84)">
<path d="M19 0H2C0.89543 0 0 0.89543 0 2V13C0 14.1046 0.89543 15 2 15H19C20.1046 15 21 14.1046 21 13V2C21 0.89543 20.1046 0 19 0Z" fill="#003282"/>
<path fill-rule="evenodd" clip-rule="evenodd" d="M0 15H21V2L0 13V15Z" fill="#00963F"/>
<path fill-rule="evenodd" clip-rule="evenodd" d="M4.498 5.23L3.028 6.003L3.308 4.366L2.12 3.206L3.763 2.969L4.498 1.479L5.232 2.969L6.875 3.206L5.685 4.366L5.967 6.002" fill="#FFE000"/>
<path fill-rule="evenodd" clip-rule="evenodd" d="M0 14L21 3V-1L0 10V14Z" fill="white"/>
<path fill-rule="evenodd" clip-rule="evenodd" d="M0 16L21 5V1L0 12V16Z" fill="white"/>
<path fill-rule="evenodd" clip-rule="evenodd" d="M0 15L21 4V0L0 11V15Z" fill="#D4062E"/>
<path d="M19 0.5H2C1.17157 0.5 0.5 1.17157 0.5 2V13C0.5 13.8284 1.17157 14.5 2 14.5H19C19.8284 14.5 20.5 13.8284 20.5 13V2C20.5 1.17157 19.8284 0.5 19 0.5Z" stroke="black" stroke-opacity="0.1"/>
</g>
</svg>
